symbols/web/docs_add_on/materialsymbolsoutlined/docs_add_on_wght600gradN25_40px.svg

<svg xmlns="http://www.w3.org/2000/svg" height="40" width="40"><path d="M26.583 35.042v-5h-5V26.5h5v-5h3.542v5h5v3.542h-5v5ZM6.25 31.167v-3.542h12q.042.958.125 1.771.083.812.417 1.771Zm0-7.375V20.25h15.958q-.958.708-1.646 1.604-.687.896-1.145 1.938Zm0-7.375v-3.542h25.875v3.542Zm0-7.375V5.458h25.875v3.584Z"/></svg>

<svg xmlns="http://www.w3.org/2000/svg" height="40" width="40"><path d="M32.125 9.042H6.25V5.458H32.125ZM6.25 16.417V12.875H32.125V16.417ZM6.25 23.792V20.25H22.208Q21.25 20.958 20.562 21.854Q19.875 22.75 19.417 23.792ZM6.25 27.625H18.25Q18.292 27.792 18.271 27.979Q18.25 28.167 18.25 28.333Q18.25 29.083 18.375 29.792Q18.5 30.5 18.792 31.167H6.25ZM26.583 35.042V30.042H21.583V26.5H26.583V21.5H30.125V26.5H35.125V30.042H30.125V35.042Z"/></svg>
